media/img/firefox/new/icon-seamless.svg

<?xml version="1.0" encoding="UTF-8"?>
<svg width="65px" height="65px" viewBox="0 0 65 65" version="1.1" xmlns="http://www.w3.org/2000/svg" xmlns:xlink="http://www.w3.org/1999/xlink">
    <!-- Generator: Sketch 52.5 (67469) - http://www.bohemiancoding.com/sketch -->
    <title>icon-seamless</title>
    <desc>Created with Sketch.</desc>
    <defs>
        <linearGradient x1="79.9133916%" y1="9.71235782%" x2="21.8541949%" y2="77.3794122%" id="linearGradient-1">
            <stop stop-color="#00BDEB" offset="0%"></stop>
            <stop stop-color="#0093FE" offset="100%"></stop>
        </linearGradient>
    </defs>
    <g id="Designs" stroke="none" stroke-width="1" fill="none" fill-rule="evenodd">
        <g id="Windows" transform="translate(-784.000000, -563.000000)" fill="url(#linearGradient-1)">
            <path d="M816.5,628 C834.449254,628 849,613.449254 849,595.5 C849,577.550746 834.449254,563 816.5,563 C798.550746,563 784,577.550746 784,595.5 C784,613.449254 798.550746,628 816.5,628 Z M816.5,625.173913 C832.88845,625.173913 846.173913,611.88845 846.173913,595.5 C846.173913,579.11155 832.88845,565.826087 816.5,565.826087 C800.11155,565.826087 786.826087,579.11155 786.826087,595.5 C786.826087,611.88845 800.11155,625.173913 816.5,625.173913 Z M827.804348,591.26087 C830.206522,591.26087 832.043478,593.097826 832.043478,595.5 L832.043478,608.217391 C832.043478,610.619565 830.206522,612.456522 827.804348,612.456522 L815.086957,612.456522 C812.684783,612.456522 810.847826,610.619565 810.847826,608.217391 L810.847826,595.5 C810.847826,593.097826 812.684783,591.26087 815.086957,591.26087 L827.804348,591.26087 Z M829.217391,608.217391 L829.217391,595.5 C829.217391,594.652174 828.652174,594.086957 827.804348,594.086957 L815.086957,594.086957 C814.23913,594.086957 813.673913,594.652174 813.673913,595.5 L813.673913,608.217391 C813.673913,609.065217 814.23913,609.630435 815.086957,609.630435 L827.804348,609.630435 C828.652174,609.630435 829.217391,609.065217 829.217391,608.217391 Z M808.021739,601.152174 C808.021739,602 807.456522,602.565217 806.608696,602.565217 L805.195652,602.565217 C802.793478,602.565217 800.956522,600.728261 800.956522,598.326087 L800.956522,585.608696 C800.956522,583.206522 802.793478,581.369565 805.195652,581.369565 L817.913043,581.369565 C820.315217,581.369565 822.152174,583.206522 822.152174,585.608696 L822.152174,587.021739 C822.152174,587.869565 821.586957,588.434783 820.73913,588.434783 C819.891304,588.434783 819.326087,587.869565 819.326087,587.021739 L819.326087,585.608696 C819.326087,584.76087 818.76087,584.195652 817.913043,584.195652 L805.195652,584.195652 C804.347826,584.195652 803.782609,584.76087 803.782609,585.608696 L803.782609,598.326087 C803.782609,599.173913 804.347826,599.73913 805.195652,599.73913 L806.608696,599.73913 C807.456522,599.73913 808.021739,600.304348 808.021739,601.152174 Z" id="icon-seamless"></path>
        </g>
    </g>
</svg>

<svg width="65" height="65" xmlns="http://www.w3.org/2000/svg"><defs><linearGradient x1="79.913%" y1="9.712%" x2="21.854%" y2="77.379%" id="a"><stop stop-color="#00BDEB" offset="0%"/><stop stop-color="#0093FE" offset="100%"/></linearGradient></defs><path d="M816.5 628c17.95 0 32.5-14.55 32.5-32.5S834.45 563 816.5 563 784 577.55 784 595.5s14.55 32.5 32.5 32.5zm0-2.826c16.388 0 29.674-13.286 29.674-29.674 0-16.388-13.286-29.674-29.674-29.674-16.388 0-29.674 13.286-29.674 29.674 0 16.388 13.286 29.674 29.674 29.674zm11.304-33.913c2.403 0 4.24 1.837 4.24 4.239v12.717c0 2.403-1.837 4.24-4.24 4.24h-12.717c-2.402 0-4.24-1.837-4.24-4.24V595.5c0-2.402 1.838-4.24 4.24-4.24h12.717zm1.413 16.956V595.5c0-.848-.565-1.413-1.413-1.413h-12.717c-.848 0-1.413.565-1.413 1.413v12.717c0 .848.565 1.413 1.413 1.413h12.717c.848 0 1.413-.565 1.413-1.413zm-21.195-7.065c0 .848-.565 1.413-1.413 1.413h-1.413c-2.403 0-4.24-1.837-4.24-4.239V585.61c0-2.402 1.837-4.24 4.24-4.24h12.717c2.402 0 4.24 1.838 4.24 4.24v1.413c0 .848-.566 1.413-1.414 1.413s-1.413-.565-1.413-1.413v-1.413c0-.848-.565-1.413-1.413-1.413h-12.717c-.848 0-1.413.565-1.413 1.413v12.717c0 .848.565 1.413 1.413 1.413h1.413c.848 0 1.413.565 1.413 1.413z" transform="translate(-784 -563)" fill="url(#a)" fill-rule="evenodd"/></svg>
